public/svg/letterG.svg

<svg xmlns="http://www.w3.org/2000/svg" width="48" height="48" fill="#f50000" xmlns:v="https://vecta.io/nano"><circle opacity=".2" cx="24" cy="24" r="24"/><path d="M26.504 22.36a2.24 2.24 0 0 0-.99-.954c-.42-.228-.918-.342-1.494-.342-.996 0-1.794.33-2.394.99-.6.648-.9 1.518-.9 2.61 0 1.164.312 2.076.936 2.736.636.648 1.506.972 2.61.972.756 0 1.392-.192 1.908-.576.528-.384.912-.936 1.152-1.656h-3.906v-2.268h6.696v2.862c-.228.768-.618 1.482-1.17 2.142-.54.66-1.23 1.194-2.07 1.602s-1.788.612-2.844.612c-1.248 0-2.364-.27-3.348-.81-.972-.552-1.734-1.314-2.286-2.286-.54-.972-.81-2.082-.81-3.33s.27-2.358.81-3.33c.552-.984 1.314-1.746 2.286-2.286.972-.552 2.082-.828 3.33-.828 1.512 0 2.784.366 3.816 1.098 1.044.732 1.734 1.746 2.07 3.042h-3.402z"/></svg>

<svg xmlns="http://www.w3.org/2000/svg" width="48" height="48" viewBox="0 0 48 48" fill="none">
<circle opacity="0.2" cx="24" cy="24" r="24" fill="#F50000"/>
<path d="M26.504 22.36C26.276 21.94 25.946 21.622 25.514 21.406C25.094 21.178 24.596 21.064 24.02 21.064C23.024 21.064 22.226 21.394 21.626 22.054C21.026 22.702 20.726 23.572 20.726 24.664C20.726 25.828 21.038 26.74 21.662 27.4C22.298 28.048 23.168 28.372 24.272 28.372C25.028 28.372 25.664 28.18 26.18 27.796C26.708 27.412 27.092 26.86 27.332 26.14H23.426V23.872H30.122V26.734C29.894 27.502 29.504 28.216 28.952 28.876C28.412 29.536 27.722 30.07 26.882 30.478C26.042 30.886 25.094 31.09 24.038 31.09C22.79 31.09 21.674 30.82 20.69 30.28C19.718 29.728 18.956 28.966 18.404 27.994C17.864 27.022 17.594 25.912 17.594 24.664C17.594 23.416 17.864 22.306 18.404 21.334C18.956 20.35 19.718 19.588 20.69 19.048C21.662 18.496 22.772 18.22 24.02 18.22C25.532 18.22 26.804 18.586 27.836 19.318C28.88 20.05 29.57 21.064 29.906 22.36H26.504Z" fill="#F50000"/>
</svg>
